src/unlock.svg

<svg viewBox="0 0 16 16" fill="none" xmlns="http://www.w3.org/2000/svg"><path d="M4.72 7.00001V5.45001C4.6985 4.55785 5.03176 3.69359 5.64666 3.04682C6.26156 2.40005 7.10789 2.02358 8 2.00001C8.48894 2.0026 8.97087 2.11651 9.40923 2.33309C9.84759 2.54967 10.2309 2.86324 10.53 3.25001L11.31 2.63001C10.9208 2.12203 10.4197 1.71069 9.84559 1.42798C9.2715 1.14527 8.63993 0.998812 8 1.00001C6.84269 1.02365 5.74204 1.50549 4.93962 2.33979C4.1372 3.17408 3.69857 4.29265 3.72 5.45001V7.00001H3V15H13V7.00001H4.72ZM12 14H4V8.00001H12V14ZM7.5 11.91V13H8.5V11.91C8.83361 11.7921 9.11478 11.56 9.29382 11.2548C9.47285 10.9496 9.53823 10.5909 9.4784 10.2421C9.41856 9.89339 9.23736 9.57703 8.96683 9.34896C8.6963 9.12088 8.35384 8.99579 8 8.99579C7.64616 8.99579 7.3037 9.12088 7.03317 9.34896C6.76264 9.57703 6.58144 9.89339 6.5216 10.2421C6.46177 10.5909 6.52715 10.9496 6.70618 11.2548C6.88522 11.56 7.16639 11.7921 7.5 11.91ZM8 10C8.09889 10 8.19556 10.0293 8.27779 10.0843C8.36001 10.1392 8.4241 10.2173 8.46194 10.3087C8.49978 10.4 8.50969 10.5006 8.49039 10.5976C8.4711 10.6945 8.42348 10.7836 8.35355 10.8536C8.28363 10.9235 8.19454 10.9711 8.09755 10.9904C8.00056 11.0097 7.90002 10.9998 7.80866 10.9619C7.7173 10.9241 7.63921 10.86 7.58427 10.7778C7.52932 10.6956 7.5 10.5989 7.5 10.5C7.5 10.3674 7.55268 10.2402 7.64645 10.1465C7.74021 10.0527 7.86739 10 8 10Z" fill="#111111"/></svg>

<svg viewBox="0 0 16 16" fill="none" xmlns="http://www.w3.org/2000/svg"><path d="M4.72 7V5.45A3.37 3.37 0 0 1 8 2a3.22 3.22 0 0 1 2.53 1.25l.78-.62A4.16 4.16 0 0 0 8 1a4.37 4.37 0 0 0-4.28 4.45V7H3v8h10V7H4.72ZM12 14H4V8h8v6Zm-4.5-2.09V13h1v-1.09a1.5 1.5 0 1 0-1 0ZM8 10a.5.5 0 1 1 0 1 .5.5 0 0 1 0-1Z" fill="#111111"/></svg>
